X: 3
T: Coleman's March
Z: ceolachan
S: https://thesession.org/tunes/3888#setting16795
R: polka
M: 2/4
L: 1/8
K: Gmaj
B2 B/B/B BAGB | c2 c/c/c B2 Bc | d2- de dB GB | A2- AA A2 Bc | d2 g2 f2 f/g/f | ef ed BA G2 | A2- AB cB AB |[1 G2- GG G :|[2 G2- GG G2 ||g2- gg- g2 gg | f2 fd- d2 de- | ed ef gf ef | d2- dd- dc Bc |d2 g2 f2 ff | ef ed BA G2 | A2- AB cB AB |[1 G2- GG- G2 :|[2 G2- GG G |]
